svg/map/planet_line.svg

<?xml version="1.0" encoding="UTF-8"?>
<svg width="24px" height="24px" viewBox="0 0 24 24" version="1.1" xmlns="http://www.w3.org/2000/svg" xmlns:xlink="http://www.w3.org/1999/xlink">
    <title>planet_line</title>
    <g id="页面-1" stroke="none" stroke-width="1" fill="none" fill-rule="evenodd">
        <g id="Map" transform="translate(-240.000000, 0.000000)">
            <g id="planet_line" transform="translate(240.000000, 0.000000)">
                 <path d="M24,0 L24,24 L0,24 L0,0 L24,0 Z M12.5934901,23.257841 L12.5819402,23.2595131 L12.5108777,23.2950439 L12.4918791,23.2987469 L12.4918791,23.2987469 L12.4767152,23.2950439 L12.4056548,23.2595131 C12.3958229,23.2563662 12.3870493,23.2590235 12.3821421,23.2649074 L12.3780323,23.275831 L12.360941,23.7031097 L12.3658947,23.7234994 L12.3769048,23.7357139 L12.4804777,23.8096931 L12.4953491,23.8136134 L12.4953491,23.8136134 L12.5071152,23.8096931 L12.6106902,23.7357139 L12.6232938,23.7196733 L12.6232938,23.7196733 L12.6266527,23.7031097 L12.609561,23.275831 C12.6075724,23.2657013 12.6010112,23.2592993 12.5934901,23.257841 L12.5934901,23.257841 Z M12.8583906,23.1452862 L12.8445485,23.1473072 L12.6598443,23.2396597 L12.6498822,23.2499052 L12.6498822,23.2499052 L12.6471943,23.2611114 L12.6650943,23.6906389 L12.6699349,23.7034178 L12.6699349,23.7034178 L12.678386,23.7104931 L12.8793402,23.8032389 C12.8914285,23.8068999 12.9022333,23.8029875 12.9078286,23.7952264 L12.9118235,23.7811639 L12.8776777,23.1665331 C12.8752882,23.1545897 12.8674102,23.1470016 12.8583906,23.1452862 L12.8583906,23.1452862 Z M12.1430473,23.1473072 C12.1332178,23.1423925 12.1221763,23.1452606 12.1156365,23.1525954 L12.1099173,23.1665331 L12.0757714,23.7811639 C12.0751323,23.7926639 12.0828099,23.8018602 12.0926481,23.8045676 L12.108256,23.8032389 L12.3092106,23.7104931 L12.3186497,23.7024347 L12.3186497,23.7024347 L12.3225043,23.6906389 L12.340401,23.2611114 L12.337245,23.2485176 L12.337245,23.2485176 L12.3277531,23.2396597 L12.1430473,23.1473072 Z" id="MingCute" fill-rule="nonzero"></path>
                <path d="M12,3 C14.2247,3 16.2628,3.80843 17.8332,5.1461 C18.7641,4.92577 19.6183,4.82403 20.3399,4.88537 C21.0996,4.94995 21.9433,5.2226 22.3923,6.00018 C22.7985,6.70379 22.744,7.48932 22.4678,8.20408 C22.1964,8.90619 21.6812,9.63114 20.9869,10.3673 C20.9496,10.4068 20.9117,10.4465 20.8731,10.4864 C20.9566,10.9791 21,11.4848 21,12 C21,16.9706 16.9705,21 12,21 C9.81632,21 7.8123,20.2211 6.25397,18.9273 C6.19958,18.9409 6.14568,18.954 6.09227,18.9667 C5.10762,19.1999 4.22222,19.2836 3.47848,19.1675 C2.72097,19.0494 2.01274,18.7019 1.60766,18.0002 C1.15885,17.2229 1.34437,16.356 1.66808,15.666 C1.97561,15.0105 2.49063,14.3217 3.14663,13.6258 C3.05023,13.0978 2.99998,12.5544 2.99998,12 C2.99998,7.02944 7.02942,3 12,3 Z M3.3452,17.009 C3.20187,16.3005 4.3454,15.2581 4.75138,14.8419 C5.11329,14.471 5.25552,13.9483 5.15148,13.4564 C5.05233,12.9874 4.99998,12.5004 4.99998,12 C4.99998,8.13401 8.13399,5 12,5 C13.8012,5 15.4415,5.67902 16.6825,6.79667 C17.0568,7.13373 17.5812,7.27209 18.0838,7.14399 C18.6474,7.00034 20.1229,6.53073 20.6651,7.00935 C21.0006,7.71254 19.694,8.84095 19.2858,9.24773 C19.2825,9.25105 19.2792,9.25438 19.2759,9.25772 C18.0386,10.488 15.994,12.0037 13,13.7323 C10.0076,15.4599 7.67365,16.4726 5.98979,16.9293 C5.98489,16.9306 5.98,16.9319 5.97511,16.9332 C5.44801,17.0755 3.76639,17.6219 3.3452,17.009 Z M8.63264,18.1386 C10.1714,17.5248 11.9629,16.6404 14,15.4643 C16.0364,14.2886 17.6976,13.1796 18.9983,12.1542 C18.9163,15.949 15.8144,19 12,19 C10.7787,19 9.63157,18.6879 8.63264,18.1386 Z" id="形状" fill="#09244B"></path>
            </g>
        </g>
    </g>
</svg>

<svg xmlns="http://www.w3.org/2000/svg" width="24" height="24"><g fill="none" fill-rule="evenodd"><path d="M24 0v24H0V0h24ZM12.593 23.258l-.011.002-.071.035-.02.004-.014-.004-.071-.035c-.01-.004-.019-.001-.024.005l-.004.01-.017.428.005.02.01.013.104.074.015.004.012-.004.104-.074.012-.016.004-.017-.017-.427c-.002-.01-.009-.017-.017-.018Zm.265-.113-.013.002-.185.093-.01.01-.003.011.018.43.005.012.008.007.201.093c.012.004.023 0 .029-.008l.004-.014-.034-.614c-.003-.012-.01-.02-.02-.022Zm-.715.002a.023.023 0 0 0-.027.006l-.006.014-.034.614c0 .012.007.02.017.024l.015-.002.201-.093.01-.008.004-.011.017-.43-.003-.012-.01-.01-.184-.092Z"/><path fill="#09244B" d="M12 3c2.225 0 4.263.808 5.833 2.146.931-.22 1.785-.322 2.507-.26.76.064 1.603.337 2.052 1.114.407.704.352 1.49.076 2.204-.272.702-.787 1.427-1.481 2.163l-.114.12a9 9 0 0 1-14.62 8.44l-.16.04c-.985.233-1.87.317-2.615.2-.757-.118-1.465-.465-1.87-1.167-.45-.777-.264-1.644.06-2.334.308-.655.823-1.344 1.479-2.04A9 9 0 0 1 12 3ZM3.345 17.009c-.143-.709 1-1.75 1.406-2.167a1.53 1.53 0 0 0 .4-1.386 7 7 0 0 1 11.531-6.66 1.53 1.53 0 0 0 1.402.348c.563-.144 2.039-.613 2.581-.135.336.704-.971 1.832-1.38 2.239a4.684 4.684 0 0 0-.01.01c-1.236 1.23-3.281 2.746-6.275 4.474-2.992 1.728-5.326 2.74-7.01 3.197l-.015.004c-.527.143-2.209.689-2.63.076Zm5.288 1.13c1.538-.614 3.33-1.499 5.367-2.675 2.036-1.175 3.698-2.284 4.998-3.31A7 7 0 0 1 8.633 18.14Z"/></g></svg>
